X: 45
T:Possum Up A Gum Stump
M:C|
L:1/8
R:Reel
K:G
B,A,|"G"G,2 G,A, B,A,G,B,|"C"CB,CD EFGE|"G"D2 DE DCB,G,|"D"A,3 B,A,2 B,A
,|!
"G"G,2 G,A, B,A,G,B,|"C"CB,CD EFGE|"D"DEFG AcBA|"G"G2 GF G2 :||!
||: 3(DEF|"G"G2 BG AG B2|"C"G2 cG BG c2|"G"G2 BG AG B2|"D"F4 d3 F|!
"G"G2 D2 B,2 G,2|"C"CB,CD EFGE|"D"DEFG AcBA|"G"G2 GF G2:||
% <A name="D1X046">
